X: 42599
T: Where The Shannon Rises
R: reel
M: 4/4
K: Dmajor
DEFA d2ed|dBcA BDGB|AGFE D2FA|dBAF ~E2F|
DEFA d2ed|dBcA ABGB|AGFE DEFA|1 B/c/d ea fddA:|2 B/c/d ea fdde||
|:fgaf dcdf|eBfB gBfe|defg a2fa|gfeg fddc|
defg afdf|edcd efge|f/g/a ef d3d|1 dBAF EFDg:|2 dBAF ~E2F||

